svg/general/bill.svg

<svg width="17" height="16" viewBox="0 0 17 16" fill="none" xmlns="http://www.w3.org/2000/svg">
<path d="M15.929 1.82298C15.8027 1.7075 15.6371 1.64456 15.466 1.64698H0.820991C0.644082 1.64218 0.472019 1.70514 0.339991 1.82298C0.278875 1.87408 0.229795 1.93804 0.196259 2.0103C0.162724 2.08255 0.145559 2.16133 0.145991 2.24098V13.041C0.144305 13.1232 0.160824 13.2047 0.194365 13.2797C0.227906 13.3548 0.277637 13.4214 0.339991 13.475C0.472183 13.5927 0.644047 13.6559 0.820991 13.652H15.466C15.6372 13.654 15.8028 13.5907 15.929 13.475C15.9915 13.4215 16.0414 13.3548 16.0751 13.2798C16.1088 13.2048 16.1255 13.1232 16.124 13.041V2.24098C16.1242 2.16126 16.1069 2.08246 16.0732 2.01021C16.0395 1.93795 15.9902 1.87403 15.929 1.82298ZM14.924 10.087C14.8133 10.0647 14.7008 10.053 14.588 10.052C13.9451 10.0527 13.3277 10.3036 12.8665 10.7516C12.4053 11.1995 12.1365 11.8094 12.117 12.452H4.17999C4.16051 11.8094 3.89172 11.1995 3.43052 10.7516C2.96933 10.3036 2.35192 10.0527 1.70899 10.052C1.58701 10.0522 1.46537 10.0649 1.34599 10.09V5.21098C1.46537 5.23604 1.58701 5.24877 1.70899 5.24899C2.352 5.24849 2.96955 4.99768 3.4308 4.54968C3.89205 4.10168 4.16076 3.4917 4.17999 2.84898H12.117C12.1362 3.4917 12.4049 4.10168 12.8662 4.54968C13.3274 4.99768 13.945 5.24849 14.588 5.24899C14.7008 5.24794 14.8133 5.23622 14.924 5.21399V10.087ZM10.475 4.87899C10.183 4.53376 9.82458 4.25081 9.42099 4.04698C9.01793 3.84433 8.5721 3.74145 8.12099 3.74698C7.67002 3.74264 7.22446 3.84546 6.82099 4.04698C6.41586 4.25019 6.05599 4.53319 5.76299 4.87899C5.45535 5.24685 5.21806 5.6682 5.06299 6.12199C4.72033 7.11184 4.72033 8.18813 5.06299 9.17799C5.21957 9.63244 5.45856 10.0542 5.76799 10.422C6.06152 10.7672 6.42128 11.0501 6.82599 11.254C7.22874 11.4546 7.67255 11.559 8.12249 11.559C8.57244 11.559 9.01624 11.4546 9.41899 11.254C9.82357 11.0504 10.183 10.7674 10.476 10.422C10.7866 10.0524 11.0303 9.63143 11.196 9.17799C11.5547 8.19089 11.5547 7.10908 11.196 6.12199C11.03 5.66878 10.786 5.24811 10.475 4.87899ZM9.46499 9.57099H6.82699V8.99999H7.27399C7.31632 9.00249 7.35868 8.99555 7.398 8.97966C7.43732 8.96378 7.47261 8.93935 7.50132 8.90815C7.53004 8.87695 7.55146 8.83975 7.56402 8.79925C7.57659 8.75875 7.58 8.71596 7.57399 8.67399V6.57999H6.83999V6.00999H7.00999C7.19244 6.02812 7.37571 5.98459 7.53051 5.88634C7.68532 5.7881 7.80273 5.6408 7.86399 5.46798H8.74599V8.67499C8.73999 8.71696 8.74339 8.75975 8.75596 8.80025C8.76853 8.84075 8.78994 8.87795 8.81866 8.90915C8.84737 8.94035 8.88267 8.96478 8.92199 8.98066C8.9613 8.99655 9.00366 9.00349 9.04599 9.00099H9.46699L9.46499 9.57099Z" fill="black"/>
</svg>

<svg id="Layer_1" data-name="Layer 1" xmlns="http://www.w3.org/2000/svg" viewBox="0 0 16 16"><title>bill</title><path d="M15.929,1.823a.672.672,0,0,0-.463-.176H.821a.694.694,0,0,0-.481.176.541.541,0,0,0-.194.418v10.8a.557.557,0,0,0,.194.434.7.7,0,0,0,.481.177H15.466a.673.673,0,0,0,.463-.177.558.558,0,0,0,.195-.434V2.241A.542.542,0,0,0,15.929,1.823Zm-1.005,8.264a1.789,1.789,0,0,0-.336-.035,2.475,2.475,0,0,0-2.471,2.4H4.18a2.475,2.475,0,0,0-2.471-2.4,1.783,1.783,0,0,0-.363.038V5.211a1.783,1.783,0,0,0,.363.038,2.474,2.474,0,0,0,2.471-2.4h7.937a2.474,2.474,0,0,0,2.471,2.4,1.789,1.789,0,0,0,.336-.035ZM10.475,4.879a3.37,3.37,0,0,0-1.054-.832,2.817,2.817,0,0,0-1.3-.3,2.848,2.848,0,0,0-1.3.3,3.363,3.363,0,0,0-1.058.832,3.907,3.907,0,0,0-.7,1.243,4.671,4.671,0,0,0,0,3.056,3.912,3.912,0,0,0,.705,1.244,3.391,3.391,0,0,0,1.058.832,2.908,2.908,0,0,0,2.593,0,3.376,3.376,0,0,0,1.057-.832,4.144,4.144,0,0,0,.72-1.244,4.474,4.474,0,0,0,0-3.056A4.139,4.139,0,0,0,10.475,4.879ZM9.465,9.571H6.827V9h.447a.286.286,0,0,0,.3-.326V6.58H6.84V6.01h.17a.82.82,0,0,0,.854-.542h.882V8.675a.286.286,0,0,0,.3.326h.421Z"/></svg>
